X:1
T:James Gibb editions
T:Ichdanke dir Herr, SWV 347 - Schütz
T:#
%%score [ 1 2 ] 3 4
L:1/8
Q:1/4=108
M:4/4
K:C
V:1 treble nm="Violin I" snm="Vn I"
V:2 treble nm="Violin II" snm="Vn II"
V:3 treble nm="Soprano" snm="S"
V:4 bass nm="Continuo"
V:1
"^Ich danke dir Herr, SWV 347""^Heinrich Schütz\n(1585-1672)""^Anderer Theil""^Psalms 111:1a; 116:8-9;\n103:2-5 & 118:17" z8 | %1
 z8 | z8 | z8 | e2 z e e2 ee | f2 z2 z2 z f | f2 ^ff g2 z2 | z g=fe d4 | e8 || %9
[M:3/2][Q:1/4=216] z12 |[M:3/2][Q:1/4=216][Q:1/4=216][Q:1/4=216][Q:1/4=216] e8 z4 | z12 | %12
 z4 e4 g4 | c4 c4 d4 | e4 e4 z4 | z4 d4 G4 | c4 F4 f4 | e4 e4 z4 | z4 d4 G4 | c4 e4 ^f4 | g8 z4 | %21
 z12 | z12 | z12 | z12 | z4 g4 d4 | c4 c4 d4 | e6 dc B2 ^c2 | d6 =cB A4 | B8 z4 | z12 | %31
 z4 e2 f2 g2 e2 | a6 a2 g4 | f8 e4 | d8 z4 | z12 | z12 | z12 | z4 z4 d4 | e8 f4 | g4 d6 d2 | c12 || %42
[M:4/4]"^tarde"[Q:1/4=100] z2 ^g4 gg | %43
[M:4/4][Q:1/4=100][Q:1/4=100][Q:1/4=100][Q:1/4=100] ^g4 g2 a2 | f6 e2- | e2 dc d4 | e8 | z8 | %48
 ee ^f2 gg=fe | d2 z2 dd e2 | ff g2 aagf | e2 z2 ee ^f2 | gg a2 =bbag | ^f3 e !courtesy!^f4 | %54
 e4 z4 | cc d2 ee ^f2 | ^gedc B2 A2 | e8 | e8 ||[M:3/2][Q:1/4=216] z12 | z12 | z12 | z4 B4 d4 | %63
 e2 d2 c2 A2 B2 c2 | d4 c6 B2 |[M:3/2][Q:1/4=216][Q:1/4=216][Q:1/4=216][Q:1/4=216] B4 B4 z4 | z12 | %67
 z12 | z4 z4 e4 | c4 c4 f2 e2 | d2 A2 B2 c2 d4 | c2 B2 B6 A2 | A8 z4 | z12 | z12 | z4 e4 c4 | %76
 A6 A2 d2 d2 | c6 A4 d2 | B4 B4 z4 | z12 | z12 | z4 e4 B4 | c3 d c3 d c2 Bc | d3 e d3 e d2 cd | %84
 e4 e4 z4 | z12 | z4 z4 B4 | e8 d4 | c4 B6 A2 | A8 z4 | z12 | z2 g2 e2 f2 g4 | %92
 e2 ^fg a2 g2 !courtesy!^f4 | e8 z4 | z4 z4 ^F2 GA | BABc d2 e^f g2 =f2 | e2 fg a2 g2 f2 ga | %97
 _b2 b2 a4 ^f4 | d2 e^f g2 g2 g4 | ^f4 d2 e!courtesy!^f g2 =f2 | e2 fg a2 a2 g4 | g4 z4 z4 | %102
 z4 d2 g2 f2 e2 | f4 d4 z4 | z12 | z12 | z4 c2 e2 d2 c2 | d4 B4 c4 | (d2 c2) B8 | A8 g4 | %110
 e4 e4 g4 | e4 e4 g4 | a4 a4 g4 | f4 d4 z4 | z4 z4 d4 | B4 B4 d4 | B4 B4 d4 | e4 e4 d4 | c4 A4 z4 | %119
 z4 z4 d4 | c12 | B4 B4 e4 | c2 B2 c2 A2 B2 G2 | A2 G2 F2 G2 A2 B2 | c4 c4 z4 | z12 | z12 | z12 | %128
 z12 | z4 d4 g4 | f2 e2 d2 e2 f2 d2 | e2 d2 e2 c2 d2 B2 | c2 A2 B2 c2 d2 e2 | f2 e2 d2 e2 f2 g2 | %134
 a2 b2 ^g6 ^f!courtesy!^g | a4 a4 =g4 | f8 f4 | e4 g4 f4 | e8 d4 | d4 B4 c4 | d8 e4 | f6 g2 a4 | %142
 g2 f2 e6 d2 | d8 z4 | z4 d4 c4 | B8 A4 | G4 c4 d4 | e8 f4 | g6 a2 _b4 | a4 a6 g2 | g8 z4 | z12 | %152
 z4 A4 B4 | c8 d4 | e6 f2 g4 ||[M:4/4][Q:1/4=105] z4[Q:1/4=101] e4 |[Q:1/4=96] d6[Q:1/4=92] d2 | %157
[Q:1/4=92] !fermata!e16 |] %158
V:2
 z8 | z8 | z8 | z8 | z4 c2 z c | c2 ^cc d2 z2 | z2 z d d2 dd | eedc c2 B2 | c8 ||[M:3/2] z12 | %10
[M:3/2] c8 z4 | z12 | z4 c4 G4 | A4 A4 B4 | c4 c4 z4 | z12 | z12 | z4 e4 A4 | d4 G4 g4 | e4 c6 d2 | %20
 B8 z4 | z12 | z12 | z12 | z4 d4 A4 | G4 G4 B4 | c6 B2 B2 AB | c6 BA G2 A2 | =B6 AG ^F4 | G8 z4 | %30
 z12 | z12 | z12 | z12 | z4 d2 e2 f2 d2 | g6 g2 f4 | e8 d4 | c8 z4 | z4 z4 G4 | G4 A2 B2 c4 | %40
 c4 c4 B4 | c12 ||[M:4/4] z2 e4 ee |[M:4/4] e6 e2- | e2 d4 c2- | c2 c2 B2 A2 | ^G8 | z4 cc d2 | %48
 eedc B2 z2 | z8 | z dcB A2 z2 | z cBA Gedc | Bg^fe ^d2 ^c2 | ^d2 e4 d2 | e2 z2 ee =d2 | %55
 ccBA Gedc | B2 z2 z edc | B3 A B4 | ^c8 ||[M:3/2] z12 | z12 | z12 | z4 ^G4 B4 | %63
 c2 G2 A2 E2 F2 G2 | A4 A4 A4 |[M:3/2] ^G4 G4 z4 | z12 | z12 | z4 z4 ^g4 | a2 e2 f2 g2 a2 g2 | %70
 f2 e2 d2 c2 B4 | A4 A4 ^G4 | A8 z4 | z12 | z12 | z4 ^G4 A4 | d6 c2 B2 B2 | A4 A4 ^F4 | ^G4 G4 z4 | %79
 z12 | z12 | z4 B4 ^G4 | A3 B A3 B A2 ^GA | B3 c B3 c A3 B | ^G4 G4 z4 | z12 | z4 z4 ^G4 | c8 B4 | %88
 A4 A4 ^G4 | A8 z4 | z4 z2 c2 A2 B2 | c8 z4 | c3 d e2 e2 ^d4 | e8 z4 | z4 z4 A2 Bc | %95
 dedc B2 cd e2 d2 | c2 de f2 e2 d2 e^f | g2 f2 e4 d4 | z4 G2 AB c2 B2 | A4 B2 cd e2 d2 | %100
 c2 de f2 e2 d4 | c4 z4 z4 | z12 | z12 | z12 | z4 B2 d2 c2 B2 | c4 A2 c2 B2 A2 | B4 G4 A4 | %108
 A4 A4 ^G4 | A8 e4 | c4 c4 e4 | c4 c4 e4 | c4 c4 G4 | A6 Bc d4 | G4 z4 B4 | G4 G4 B4 | G4 G4 B4 | %117
 G4 G4 D4 | E6 ^FG A4 | D4 G4 z4 | E12 | E8 z4 | z12 | z4 c4 f4 | e2 d2 c2 d2 e2 c2 | %125
 d2 c2 d2 B2 c2 A2 | B2 G2 A2 B2 c2 d2 | e2 d2 c2 d2 e2 ^f2 | g2 e2 ^f6 ef | g8 z4 | z12 | z12 | %132
 z12 | z12 | z12 | z4 f4 e4 | c8 d4 | e4 e4 d4 | c8 A4 | B4 d4 c4 | B8 G4 | A8 z4 | z4 a4 g4 | %143
 f8 e4 | d8 z4 | z4 g4 f4 | e8 d4 | c4 c4 d4 | e6 f2 g4 | g4 g4 ^f4 | g4 g4 =f4 | e8 d4 | %152
 c4 c4 B4 | A8 F4 | G6 F2 E4 ||[M:4/4] z4 G4 | G4 G4 | !fermata!G16 |] %158
V:3
 c2 z c c2 cc | d2 z d d2 dd | e2 z e (fe) (dc) | d4 c2 z G | G2 ^GG A2 z2 | z2 z A A2 AA | %6
w: Ich, ich dan- ke dir|Herr, ich dan- ke dir|Herr von gan\- * zem *|Her- zen, ich|dan- ke dir Herr,|ich dan- ke dir|
 _B2 z2 z GA=B | c4 G4- | G8 ||[M:3/2] c12 |[M:3/2] z4 c4 G4 | A4 A4 B4 | c4 c4 z4 | z4 A4 D4 | %14
w: Herr von gan- zem|Her- zen,||denn,|denn du|hast mei- ne|See- le|von dem|
 G4 C4 c4 | B4 B4 z4 | z4 A4 D4 | G4 C4 c4 | B4 B4 z4 | z12 | z4 d4 B4 | G4 G4 F4 | (A6 G2 G2 FG | %23
w: To- de er-|re- tet,|von dem|To- de er-|re- tet,||mei- ne|Füs- se von|Glei\- * * * *|
 A6 GF E2 ^F2 | G6 ^FE !courtesy!^F4) | G8 z4 | z12 | z12 | z12 | z4 (B2 c2) (d2 B2) | e6 e2 d4 | %31
w: ||ten,||||dass * ich *|wan- de- len|
 c8 B4 | A4 (A2 B2) (c2 A2) | d6 d2 c4 | B8 A4 | G8 z4 | z4 z4 G4 | A8 A4 | c4 c6 B2 | c8 z4 | %40
w: mag für|Gott, dass * ich *|wan- de- len|mag für|Gott|im|Licht der|Le- ben- di-|gen.|
 z12 | z12 ||[M:4/4] z2 B4 BB |[M:4/4] B2 B4 E2 | A8- | A8 | B8 | AA B2 ccBA | G2 z2 GG A2 | %49
w: ||Lo- be den|Herrn, mei- ne|See\-||le,|und ver- giss nicht, was er dir|Guts, und ver- giss|
 BB ^c2 dd=cB | A2 z2 AA B2 | cc d2 e2 z2 | z edc B2 E2 | B4 B4 | BB A2 ^G2 z2 | z AGF EcBA | %56
w: nicht, ver- giss nicht, was er dir|Guts, und ver- giss|nicht, ver- giss nicht,|was er dir Guts ge-|tan hat,|und ver- giss nicht,|was er dir Guts, was er dir|
 ^G2 z2 z EE^F | ^G2 A2 (A3 !courtesy!^G) | A8 ||[M:3/2] z4 c4 d4 | e2 d2 c2 A2 B2 c2 | d4 c6 B2 | %62
w: Guts, was er dir|Guts ge- tan *|hat.|Der dir|al- le, al- le dei- ne|Sün- de ver-|
 B4 B4 z4 | z12 | z12 |[M:3/2] z4 z4 e4 | c4 c4 f2 e2 | d8 d4 | c4 B8 | A8 z4 | z12 | z12 | %72
w: gie- bet,|||und|hei- let al- le|dei- ne|Ge- bre-|chen,|||
 z4 e4 c4 | A6 A2 B2 B2 | c6 A4 d2 | B4 B4 z4 | z12 | z12 | z4 e4 B4 | (c3 d c3 d c2 Bc | %80
w: der dein|Le- ben vom Ver-|der- ben er-|lö- set,|||der dich|krö\- * * * * * *|
 d3 e d3 e d2 cd | e4) e4 z4 | z12 | z12 | z4 z4 B4 | e8 d4 | c4 B6 A2 | A8 z4 | z12 | %89
w: |* net|||mit|Gnad und|Barm- her- zig-|keit.||
 z2 c2 A2 B2 c4 | (c2 de f2) e2 d4 | c8 z4 | z12 | z2 B2 G2 A2 B4 | (G2 AB c2) B2 A4 | G8 (G2 AB | %96
w: Der dei- nen Mund|frö\- * * * lich ma-|chet,||der dei- nen Mund|frö\- * * * lich ma-|chet, frö\- * *|
 c2) B2 (A2 Bc d2) d2 | d4 ^c4 (A2 B=c | d2) c2 (B2 cd e2) e2 | d4 B4 (G2 AB | c2) c2 A2 c2 c3 B | %101
w: * lich, frö\- * * * lich|ma- chet, frö\- * *|* lich, frö\- * * * lich|ma- chet, frö\- * *|* lich, frö- lich ma- chet,|
 c4 G2 c2 B2 A2 | B4 G4 z4 | z4 A2 d2 c2 B2 | c4 A4 A4 | A4 (A6 ^G2) | A8 z4 | z12 | z12 | %109
w: et, dass du wie- der|jung wirst,|dass du wie- der|jung wirst, wie|ein A\- *|dler.|||
 z4 z4 c4 | G4 G4 c4 | G4 G4 c4 | A4 A4 c4 | c8 B4 | z4 z4 G4 | D4 D4 G4 | D4 D4 G4 | E4 E4 G4 | %118
w: Ich|wer- de, ich|wer- de, ich|wer- de nicht|ster- ben,|ich|wer- de, ich|wer- de, ich|wer- de nicht|
 G8 ^F4 | z4 z4 B4 | A12 | ^G8 z4 | z12 | z12 | z4 G4 c4 | (B2 A2 B2 G2 A2 F2 | G2 E2 F2 G2 A2 B2 | %127
w: ster- ben,|nicht|ster-|ben,|||son- dem|le\- * * * * *||
 c2 d2 e2 d2 c2 B2 | A2 G2 A8) | G8 z4 | z4 A4 d4 | (c2 B2 c2 A2 B2 G2 | A2 F2 G2 A2 B2 c2 | %133
w: ||ben,|son- dern|le\- * * * * *||
 d2 e2 f2 e2 d2 c2 | B2 A2 B8) | A4 A4 B4 | c8 d4 | G4 c4 A4 | G8 A4 | D4 G4 A4 | B8 c4 | %141
w: ||ben und des|Her- ren|Lob, und des|Her- ren|Lob, und des|Her- ren|
 (d6 e2 f4) | d4 d4 ^c4 | d8 z4 | z12 | z12 | z12 | z12 | z12 | z4 d4 c4 | B8 A4 | G8 z4 | %152
w: Lob, * *|ver- kün- di-|gen,||||||und des|Her- ren|Lob,|
 z4 F4 G4 | A8 B4 | (c6 d2 e4) ||[M:4/4] z4 c4 | c6 B2 | !fermata!c16 |] %158
w: und des|Her- ren|Lob, * *|ver-|kün- di-|gen.|
V:4
 C8 | B,8 | A,4 F,2 A,2 | G,4 C,4 | C2 B,2 A,2 G,2 | F,2 E,2 D,2 C,2 | _B,,2 A,,2 G,,2 F,,2 | %7
w: |||||||
 E,,2 F,,2 G,,4 | C,8 ||[M:3/2] C,12 |[M:3/2] C,8 B,,4 | A,,4 F,,4 G,,4 | C,8 E,4 | F,4 A,4 G,4 | %14
w: |||* 6||||
 C,4 A,,8 | G,,4 G,4 E,4 | F,4 D,8 | C,4 A,,8 | G,,4 G,4 E,4 | C,4 A,,8 | G,,12 | G,,4 C,4 A,,4 | %22
w: ||||||||
 F,,4 F,,4 E,,4 | F,,2 G,,2 A,,2 B,,2 C,4 | G,,2 A,,2 B,,2 C,2 D,4 | G,,8 G,4 | C4 A,4 G,4 | %27
w: |||||
 C,2 D,2 E,2 F,2 G,4 | G,,2 A,,2 B,,2 C,2 D,4 | G,,8 B,4 | C8 B,4 | A,8 G,4 | F,8 E,4 | D,8 F,4 | %34
w: |||||||
 G,8 F,4 | E,8 D,4 | C,8 E,4 | F,8 F,4 | A,4 x4- x4 | C,6 B,,2 A,,4 | E,,4 x4- x4 | C,12 || %42
w: ||||* 4|* * 6|* 4||
[M:4/4] z2 E,4 E,E, |[M:4/4] E,4 E,2 ^C,2 | x2- x2 x2-xG,, | x4- x4 | E,,8 | F,,2 G,,2 A,,2 B,,2 | %48
w: ||9 4 *|7|||
 C,2 D,2 E,2 F,2 | G,,2 A,,2 B,,2 C,2 | D,2 E,2 F,2 G,2 | A,,2 B,,2 C,2 D,2 | E,2 ^F,2 G,2 A,2 | %53
w: |||||
 B,2 ^G,2 x2- x2 | E,4 E,2 ^G,2 | A,,2 B,,2 C,2 D,2 | E,2 ^F,2 ^G,2 A,2 | E,2 ^C,2 x2- x2 | A,,8 || %59
w: * 6 4||||* 6 4||
[M:3/2] A,8 G,4 | C2 B,2 A,2 G,2 F,2 E,2 | D,4 A,,4 C,4 | E,8 D,4 | C,2 B,,2 A,,2 G,2 F,2 E,2 | %64
w: ||* * 6|* 6||
 D,4 A,,4 C,4 |[M:3/2] E,8 E,4 | A,2 G,2 F,2 E,2 D,2 ^C,2 | D,2 C,2 B,,2 A,,2 ^G,,4 | A,,4 E,8 | %69
w: * * 6|||||
 A,2 G,2 F,2 E,2 D,2 ^C,2 | D,2 C,2 B,,2 A,,2 ^G,,4 | A,,4 E,8 | A,,8 A,4 | ^F,8 G,4 | %74
w: |||||
 A,4 ^F,4 D,4 | E,8 A,4 | ^F,8 G,4 | A,4 ^F,4 D,4 | E,8 E,4 | A,12 | G,8 F,4 | E,8 E,4 | A,12 | %83
w: ||||||* 6|||
 G,8 F,4 | E,8 E,4 | C,8 D,4- | D,4 E,8 | A,,8 D,2 E,2 | F,2 D,2 x4- x4 | A,,8 E,4 | F,8 G,4 | %91
w: * 6||||* 6 *|* * 4|* 6||
 C,8 B,,4 | A,,8 B,,4 | E,8 D,4 | C,8 D,4 | G,,4 G,4 E,4 | A,4 F,4 _B,4 | G,4 A,4 D,4- | %98
w: * 6||* 6|||||
 D,4 E,4 C,4 | D,4 G,4 E,4 | A,4 F,4 G,4 | C,4 E,4 ^F,4 | G,,4 B,,4 C,4 | D,4 F,4 G,4 | A,8 D,4- | %105
w: |||||||
 D,4 x4- x4 | A,,8 A,4 | G,8 F,4 | D,4 x4- x4 | A,,8 C,4 | C,8 C,4 | C,8 C,4 | F,8 E,4 | x8- x4 | %114
w: * 4|||* 4|||||7|
 C,4 z4 G,,4 | G,,8 G,,4 | G,,8 G,,4 | C,8 B,,4 | x8- x4 | G,,4 z4 G,,4 | x8- x4 | E,8 E,4 | %122
w: ||||7||7||
 A,8 G,4 | F,4 E,4 D,4 | C,4 B,,4 A,,4 | G,,4 G,4 F,4 | E,8 D,4 | C,8 C,4 | E,4 D,8 | %129
w: |* 6 *|* 6 *||||4 *|
 G,,4 F,4 E,4 | D,4 C,4 B,,4 | A,,4 A,4 G,4 | F,8 E,4 | D,8 D,4 | F,4 E,8 | A,,4 F,,4 G,,4 | %136
w: * 6 *|* 6 *|||||* * 6|
 A,,8 B,,4 | C,8 D,4 | E,8 ^F,4 | G,12 | G,8 E,4 | D,12 | G,,4 x4- x4 | D,,4 D,4 C,4 | B,,8 A,,4 | %145
w: 6 6||6 *||* 6||* 4|||
 G,,12 | C,8 B,,4 | A,,8 F,,4 | C,8 G,,4 | C,4 x4- x4 | G,,12 | C,,4 C,4 B,,4 | x4- x4 G,,4 | %153
w: ||* 6||* 4|||5 *|
 x8- x4 | E,,12 ||[M:4/4] z4 E,,4 | x4- x4 | !fermata!C,16 |] %158
w: 5|6|6|4||

